;FLAVOR:Marlin
;TIME:2976
;Filament used: 3.5414m
;Layer height: 0.2
;MINX:83.208
;MINY:46.201
;MINZ:0.2
;MAXX:136.935
;MAXY:173.8
;MAXZ:6
;TARGET_MACHINE.NAME:Creality Ender-3 V3 SE
;Generated with Cura_SteamEngine 5.6.0
M140 S60
M105
M190 S60
M104 S200
M105
M109 S200
M82 ;absolute extrusion mode
M220 S100 ;Reset Feedrate
M221 S100 ;Reset Flowrate

G28 ;Home

M420 S1; Enable mesh leveling

G92 E0 ;Reset Extruder
G1 Z2.0 F3000 ;Move Z Axis up
G1 X10.1 Y20 Z0.28 F5000.0 ;Move to start position
M109 S[material_print_temperature_layer_0]
G1 X10.1 Y145.0 Z0.28 F1500.0 E15 ;Draw the first line
G1 X10.4 Y145.0 Z0.28 F5000.0 ;Move to side a little
G1 X10.4 Y20 Z0.28 F1500.0 E30 ;Draw the second line
G92 E0  ;Reset Extruder
G1 E-1.0000 F1800 ;Retract a bit
G1 Z2.0 F3000 ;Move Z Axis up
G1 E0.0000 F1800 

G92 E0
G92 E0
G1 F2400 E-0.8
;LAYER_COUNT:30
;LAYER:0
M107
G0 F9000 X94.391 Y54.71 Z0.2
;TYPE:SKIRT
G1 F2400 E0
G1 F1800 X94.88 Y53.87 E0.03233
G1 X95.442 Y53.073 E0.06476
G1 X96.067 Y52.335 E0.09693
G1 X96.632 Y51.768 E0.12355
G1 X97.791 Y50.686 E0.17629
G1 X98.984 Y49.546 E0.23117
G1 X99.714 Y48.91 E0.26337
G1 X100.356 Y48.436 E0.28992
G1 X100.7 Y48.203 E0.30373
G1 X101.531 Y47.693 E0.33616
G1 X102.402 Y47.26 E0.36852
G1 X103.305 Y46.906 E0.40077
G1 X104.108 Y46.665 E0.42866
G1 X104.549 Y46.552 E0.4438
G1 X105.502 Y46.353 E0.47618
G1 X106.46 Y46.238 E0.50827
G1 X107.147 Y46.21 E0.53114
G1 X108.244 Y46.201 E0.56763
G1 X109.369 Y46.228 E0.60506
G1 X111.607 Y46.35 E0.67961
G1 X114.177 Y46.425 E0.76512
G1 X116.664 Y46.427 E0.84784
G1 X119.219 Y46.357 E0.93285
G1 X121.871 Y46.222 E1.02117
G1 X122.959 Y46.204 E1.05736
G1 X123.852 Y46.214 E1.08707
G1 X124.824 Y46.274 E1.11946
G1 X125.745 Y46.412 E1.15043
G1 X126.338 Y46.544 E1.17064
G1 X126.734 Y46.645 E1.18423
G1 X127.665 Y46.928 E1.21659
G1 X128.569 Y47.291 E1.24899
G1 X129.407 Y47.717 E1.28026
G1 X130.306 Y48.282 E1.31558
G1 X131.124 Y48.875 E1.34918
G1 X132.109 Y49.653 E1.39093
G1 X132.907 Y50.305 E1.4252
G1 X133.632 Y50.956 E1.45761
G1 X134.296 Y51.667 E1.48997
G1 X134.853 Y52.378 E1.52001
G1 X135.422 Y53.254 E1.55475
G1 X135.877 Y54.117 E1.5872
G1 X136.24 Y54.982 E1.6184
G1 X136.546 Y55.944 E1.65198
G1 X136.758 Y56.894 E1.68435
G1 X136.881 Y57.818 E1.71535
G1 X136.922 Y58.505 E1.73824
G1 X136.935 Y59.129 E1.759
G1 X136.934 Y160.651 E5.13564
G1 X136.922 Y161.388 E5.16015
G1 X136.863 Y162.36 E5.19254
G1 X136.717 Y163.323 E5.22494
G1 X136.486 Y164.27 E5.25736
G1 X136.173 Y165.191 E5.28971
G1 X135.779 Y166.083 E5.32214
G1 X135.308 Y166.936 E5.35455
G1 X134.764 Y167.742 E5.3869
G1 X134.151 Y168.499 E5.41929
G1 X133.524 Y169.149 E5.44933
G1 X133.077 Y169.553 E5.46937
G1 X132.425 Y170.111 E5.49791
G1 X131.392 Y170.963 E5.54245
G1 X130.365 Y171.712 E5.58473
G1 X129.983 Y171.958 E5.59984
G1 X129.14 Y172.445 E5.63222
G1 X128.257 Y172.857 E5.66463
G1 X127.347 Y173.187 E5.69682
G1 X126.467 Y173.429 E5.72718
G1 X125.468 Y173.639 E5.76113
G1 X124.513 Y173.753 E5.79312
G1 X123.884 Y173.782 E5.81406
G1 X122.974 Y173.797 E5.84434
G1 X122.033 Y173.788 E5.87563
G1 X119.435 Y173.653 E5.96216
G1 X116.925 Y173.578 E6.04568
G1 X114.4 Y173.574 E6.12966
G1 X111.882 Y173.641 E6.21344
G1 X109.365 Y173.776 E6.29728
G1 X108.887 Y173.792 E6.31319
G1 X107.869 Y173.8 E6.34705
G1 X107.181 Y173.789 E6.36993
G1 X106.199 Y173.729 E6.40265
G1 X105.015 Y173.537 E6.44255
G1 X104.496 Y173.421 E6.46024
G1 X103.557 Y173.166 E6.4926
G1 X102.643 Y172.829 E6.525
G1 X101.795 Y172.429 E6.55618
G1 X100.93 Y171.924 E6.5895
G1 X100.216 Y171.428 E6.61841
G1 X99.098 Y170.512 E6.66648
G1 X98.082 Y169.563 E6.71273
G1 X97.254 Y168.813 E6.74988
G1 X96.611 Y168.212 E6.77916
G1 X95.933 Y167.516 E6.81147
G1 X95.34 Y166.79 E6.84265
G1 X94.774 Y165.96 E6.87607
G1 X94.39 Y165.284 E6.90192
G1 X94.037 Y164.607 E6.92732
G1 X84.601 Y145.733 E7.62915
G1 X84.306 Y145.123 E7.65169
G1 X83.938 Y144.26 E7.68289
G1 X83.625 Y143.301 E7.71644
G1 X83.42 Y142.421 E7.7465
G1 X83.276 Y141.391 E7.78109
G1 X83.23 Y140.59 E7.80777
G1 X83.208 Y139.369 E7.84839
G1 X83.209 Y80.191 E9.81666
G1 X83.221 Y79.476 E9.84044
G1 X83.28 Y78.502 E9.8729
G1 X83.427 Y77.541 E9.90523
G1 X83.658 Y76.594 E9.93765
G1 X83.958 Y75.708 E9.96877
G1 X84.279 Y74.96 E9.99584
G1 X84.817 Y73.829 E10.03749
G1 X94 Y55.466 E10.72036
G1 X94.391 Y54.71 E10.74867
G0 F9000 X94.737 Y54.911
G1 F1800 X95.207 Y54.1 E10.77985
G1 X95.747 Y53.331 E10.8111
G1 X96.351 Y52.617 E10.84221
G1 X96.905 Y52.06 E10.86833
G1 X98.064 Y50.978 E10.92107
G1 X99.247 Y49.847 E10.97551
G1 X99.952 Y49.232 E11.00662
G1 X100.594 Y48.758 E11.03317
G1 X100.91 Y48.544 E11.04586
G1 X101.71 Y48.051 E11.07711
G1 X102.549 Y47.632 E11.1083
G1 X103.42 Y47.289 E11.13944
G1 X104.208 Y47.052 E11.16681
G1 X104.631 Y46.943 E11.18134
G1 X105.55 Y46.75 E11.21257
G1 X106.477 Y46.638 E11.24363
G1 X107.15 Y46.61 E11.26603
G1 X108.235 Y46.601 E11.30212
G1 X109.347 Y46.627 E11.33911
G1 X111.595 Y46.75 E11.41399
G1 X114.165 Y46.825 E11.49951
G1 X116.675 Y46.827 E11.58299
G1 X119.23 Y46.757 E11.668
G1 X121.878 Y46.622 E11.75619
G1 X122.955 Y46.604 E11.79202
G1 X123.828 Y46.613 E11.82105
G1 X124.765 Y46.67 E11.85228
G1 X125.658 Y46.803 E11.88231
G1 X126.24 Y46.932 E11.90213
G1 X126.618 Y47.028 E11.9151
G1 X127.516 Y47.299 E11.9463
G1 X128.388 Y47.648 E11.97754
G1 X129.226 Y48.074 E12.00881
G1 X130.077 Y48.61 E12.04226
G1 X130.394 Y48.832 E12.05513
G1 X130.876 Y49.189 E12.07508
G1 X131.856 Y49.963 E12.11662
G1 X132.64 Y50.603 E12.15028
G1 X133.34 Y51.229 E12.18151
G1 X133.981 Y51.914 E12.21271
G1 X134.538 Y52.625 E12.24275
G1 X135.068 Y53.441 E12.27512
G1 X135.508 Y54.272 E12.30639
G1 X135.871 Y55.137 E12.33759
G1 X136.156 Y56.031 E12.3688
G1 X136.361 Y56.947 E12.40002
G1 X136.484 Y57.871 E12.43102
G1 X136.522 Y58.513 E12.45241
G1 X136.535 Y59.129 E12.47291
G1 X136.534 Y160.645 E15.84934
G1 X136.523 Y161.364 E15.87326
G1 X136.467 Y162.301 E15.90448
G1 X136.328 Y163.229 E15.93569
G1 X136.107 Y164.142 E15.96693
G1 X135.807 Y165.03 E15.99811
G1 X135.429 Y165.89 E16.02935
G1 X134.976 Y166.713 E16.0606
G1 X134.453 Y167.491 E16.09178
G1 X133.863 Y168.221 E16.123
G1 X133.236 Y168.871 E16.15304
G1 X132.817 Y169.249 E16.1718
G1 X132.17 Y169.802 E16.20011
G1 X131.137 Y170.654 E16.24465
G1 X130.148 Y171.376 E16.28538
G1 X129.782 Y171.612 E16.29986
G1 X128.97 Y172.083 E16.33108
G1 X128.12 Y172.481 E16.3623
G1 X127.241 Y172.801 E16.39341
G1 X126.361 Y173.043 E16.42377
G1 X125.42 Y173.242 E16.45576
G1 X124.494 Y173.353 E16.48678
G1 X123.877 Y173.382 E16.50732
G1 X122.978 Y173.397 E16.53723
G1 X122.047 Y173.388 E16.56819
G1 X121.633 Y173.373 E16.58197
G1 X119.447 Y173.253 E16.65479
G1 X116.937 Y173.178 E16.73831
G1 X114.39 Y173.174 E16.82302
G1 X111.871 Y173.241 E16.90683
G1 X109.344 Y173.377 E16.991
G1 X108.884 Y173.392 E17.00631
G1 X107.875 Y173.4 E17.03987
G1 X107.205 Y173.39 E17.06216
G1 X106.263 Y173.334 E17.09355
G1 X105.079 Y173.142 E17.13344
G1 X104.6 Y173.035 E17.14976
G1 X103.695 Y172.791 E17.18094
G1 X102.814 Y172.467 E17.21216
G1 X101.966 Y172.067 E17.24334
G1 X101.158 Y171.595 E17.27447
G1 X100.444 Y171.099 E17.30338
G1 X99.371 Y170.22 E17.34952
G1 X98.355 Y169.271 E17.39576
G1 X97.527 Y168.521 E17.43292
G1 X96.897 Y167.933 E17.46158
G1 X96.242 Y167.262 E17.49277
G1 X95.67 Y166.564 E17.52278
G1 X95.122 Y165.762 E17.55509
G1 X94.745 Y165.099 E17.58046
G1 X94.395 Y164.428 E17.60563
G1 X84.961 Y145.559 E18.30728
G1 X84.674 Y144.965 E18.32922
G1 X84.318 Y144.135 E18.35926
G1 X84.015 Y143.21 E18.39164
G1 X83.81 Y142.33 E18.42169
G1 X83.675 Y141.368 E18.454
G1 X83.63 Y140.583 E18.48015
G1 X83.608 Y139.369 E18.52053
G1 X83.609 Y80.197 E20.4886
G1 X83.62 Y79.5 E20.51179
G1 X83.676 Y78.562 E20.54304
G1 X83.816 Y77.635 E20.57422
G1 X84.037 Y76.722 E20.60547
G1 X84.337 Y75.836 E20.63658
G1 X84.64 Y75.132 E20.66207
G1 X85.175 Y74.008 E20.70347
G1 X94.355 Y55.65 E21.38615
G1 X94.737 Y54.911 E21.41382
G0 F9000 X95.084 Y55.111
G1 F1800 X95.535 Y54.329 E21.44384
G1 X96.053 Y53.589 E21.47389
G1 X96.635 Y52.899 E21.50391
G1 X97.178 Y52.352 E21.52954
G1 X98.337 Y51.27 E21.58228
G1 X99.51 Y50.148 E21.63627
G1 X100.19 Y49.554 E21.6663
G1 X100.819 Y49.089 E21.69232
G1 X101.12 Y48.884 E21.70443
G1 X101.889 Y48.409 E21.73449
G1 X102.696 Y48.004 E21.76452
G1 X103.536 Y47.672 E21.79456
G1 X104.308 Y47.439 E21.82139
G1 X104.714 Y47.334 E21.83533
G1 X105.598 Y47.147 E21.86539
G1 X106.494 Y47.038 E21.89541
G1 X107.153 Y47.01 E21.91734
G1 X108.226 Y47.001 E21.95303
G1 X109.325 Y47.026 E21.9896
G1 X111.583 Y47.15 E22.06481
G1 X114.153 Y47.225 E22.15033
G1 X116.686 Y47.227 E22.23457
G1 X119.241 Y47.157 E22.31959
G1 X121.885 Y47.022 E22.40764
G1 X122.951 Y47.004 E22.4431
G1 X123.804 Y47.012 E22.47147
G1 X124.706 Y47.066 E22.50153
G1 X125.599 Y47.199 E22.53156
G1 X126.142 Y47.32 E22.55006
G1 X126.503 Y47.411 E22.56244
G1 X127.368 Y47.671 E22.59248
G1 X128.207 Y48.005 E22.62252
G1 X129.013 Y48.413 E22.65256
G1 X129.848 Y48.938 E22.68537
G1 X130.156 Y49.153 E22.69786
G1 X130.628 Y49.503 E22.71741
G1 X131.603 Y50.273 E22.75873
G1 X132.374 Y50.902 E22.79182
G1 X133.048 Y51.503 E22.82186
G1 X133.666 Y52.161 E22.85188
G1 X134.223 Y52.872 E22.88192
G1 X134.715 Y53.629 E22.91195
G1 X135.139 Y54.427 E22.94201
G1 X135.49 Y55.259 E22.97204
G1 X135.766 Y56.119 E23.00208
G1 X135.965 Y57 E23.03212
G1 X136.085 Y57.895 E23.06216
G1 X136.122 Y58.522 E23.08305
G1 X136.135 Y59.129 E23.10324
G1 X136.134 Y160.639 E26.47948
G1 X136.124 Y161.341 E26.50283
G1 X136.071 Y162.243 E26.53288
G1 X135.939 Y163.136 E26.5629
G1 X135.728 Y164.014 E26.59294
G1 X135.44 Y164.87 E26.62298
G1 X135.078 Y165.698 E26.65303
G1 X134.644 Y166.49 E26.68307
G1 X134.141 Y167.24 E26.71311
G1 X133.575 Y167.943 E26.74313
G1 X132.948 Y168.593 E26.77316
G1 X132.558 Y168.945 E26.79064
G1 X131.915 Y169.493 E26.81874
G1 X130.882 Y170.345 E26.86327
G1 X129.912 Y171.053 E26.90322
G1 X129.581 Y171.266 E26.91631
G1 X128.8 Y171.721 E26.94637
G1 X127.983 Y172.105 E26.9764
G1 X127.135 Y172.415 E27.00643
G1 X126.255 Y172.657 E27.03678
G1 X125.372 Y172.845 E27.06681
G1 X124.475 Y172.953 E27.09686
G1 X123.87 Y172.982 E27.117
G1 X122.982 Y172.997 E27.14654
G1 X122.061 Y172.988 E27.17718
G1 X121.655 Y172.974 E27.19069
G1 X119.459 Y172.853 E27.26384
G1 X116.949 Y172.778 E27.34736
G1 X114.38 Y172.774 E27.4328
G1 X111.86 Y172.841 E27.51665
G1 X109.322 Y172.978 E27.60119
G1 X108.881 Y172.992 E27.61586
G1 X107.881 Y173 E27.64912
G1 X107.228 Y172.991 E27.67084
G1 X106.327 Y172.939 E27.70086
G1 X105.165 Y172.751 E27.74001
G1 X104.704 Y172.649 E27.75571
G1 X103.832 Y172.415 E27.78574
G1 X102.984 Y172.105 E27.81577
G1 X102.167 Y171.721 E27.8458
G1 X101.386 Y171.266 E27.87586
G1 X100.672 Y170.77 E27.90478
G1 X99.644 Y169.928 E27.94897
G1 X98.623 Y168.974 E27.99545
G1 X97.8 Y168.229 E28.03237
G1 X97.183 Y167.653 E28.06045
G1 X96.551 Y167.008 E28.09048
G1 X95.979 Y166.31 E28.1205
G1 X95.47 Y165.564 E28.15053
G1 X95.1 Y164.914 E28.17541
G1 X94.75 Y164.243 E28.20058
G1 X85.321 Y145.385 E28.90183
G1 X85.042 Y144.807 E28.92318
G1 X84.686 Y143.977 E28.95322
G1 X84.405 Y143.119 E28.98325
G1 X84.2 Y142.239 E29.0133
G1 X84.074 Y141.345 E29.04333
G1 X84.03 Y140.576 E29.06895
G1 X84.008 Y139.369 E29.1091
G1 X84.009 Y80.203 E31.07697
G1 X84.019 Y79.523 E31.09959
G1 X84.072 Y78.621 E31.12964
G1 X84.205 Y77.728 E31.15967
G1 X84.416 Y76.85 E31.1897
G1 X84.705 Y75.994 E31.21975
G1 X85.001 Y75.304 E31.24472
G1 X85.533 Y74.187 E31.28587
G1 X94.71 Y55.834 E31.96836
G1 X95.084 Y55.111 E31.99543
G1 F2400 E31.19543
G0 F9000 X106.346 Y58.197
G1 F2400 E31.99543
G1 F1800 X106.709 Y57.646 E32.01738
G1 X106.953 Y57.483 E32.02714
G1 X107.289 Y57.399 E32.03865
G1 X108.744 Y57.401 E32.08705
G1 X109.009 Y57.5 E32.09646
G1 X109.234 Y57.663 E32.1057
G1 X109.551 Y58.103 E32.12374
G1 X109.647 Y58.297 E32.13093
G1 X109.706 Y58.616 E32.14172
G1 X109.639 Y58.638 E32.14407
G1 X109.568 Y58.735 E32.14807
G1 X109.547 Y58.799 E32.15031
G1 X106.412 Y58.799 E32.25458
G1 X106.388 Y58.732 E32.25695
G1 X106.312 Y58.633 E32.2611
G1 X106.255 Y58.616 E32.26308
G1 X106.346 Y58.197 E32.27734
G0 F9000 X106.721 Y58.354
G1 F1800 X106.997 Y57.936 E32.294
G1 X107.12 Y57.853 E32.29893
G1 X107.338 Y57.799 E32.3064
G1 X108.672 Y57.801 E32.35077
G1 X108.82 Y57.856 E32.35602
G1 X108.944 Y57.947 E32.36114
G1 X109.207 Y58.311 E32.37607
G1 X109.251 Y58.399 E32.37935
G1 X106.711 Y58.399 E32.46383
G1 X106.721 Y58.354 E32.46536
G1 F2400 E31.66536
G0 F9000 X121.288 Y58.624
G1 F2400 E32.46536
G1 F1800 X121.309 Y58.352 E32.47443
G1 X121.404 Y58.106 E32.4832
G1 X121.76 Y57.628 E32.50303
G1 X121.996 Y57.479 E32.51231
G1 X122.334 Y57.399 E32.52386
G1 X123.625 Y57.401 E32.5668
G1 X123.946 Y57.483 E32.57782
G1 X124.202 Y57.667 E32.58831
G1 X124.847 Y58.476 E32.62272
G1 X124.874 Y58.504 E32.62401
G1 X125.177 Y58.76 E32.63721
G1 X125.208 Y58.781 E32.63845
G1 X125.548 Y58.973 E32.65144
G1 X125.646 Y58.999 E32.65481
G1 X125.735 Y58.999 E32.65777
G1 X125.735 Y161.001 E36.05037
G1 X125.641 Y161.001 E36.0535
G1 X125.55 Y161.023 E36.05661
G1 X125.246 Y161.178 E36.06796
G1 X125.212 Y161.2 E36.06931
G1 X124.901 Y161.448 E36.08254
G1 X124.869 Y161.48 E36.08404
G1 X124.581 Y161.845 E36.09951
G1 X124.574 Y161.854 E36.09989
G1 X124.205 Y162.379 E36.12123
G1 X123.977 Y162.52 E36.13015
G1 X123.638 Y162.601 E36.14174
G1 X122.242 Y162.599 E36.18817
G1 X121.977 Y162.5 E36.19758
G1 X121.788 Y162.363 E36.20534
G1 X121.649 Y162.185 E36.21285
G1 X121.258 Y161.398 E36.24208
G1 X121.367 Y161.362 E36.2459
G1 X121.441 Y161.255 E36.25023
G1 X121.456 Y161.201 E36.25209
G1 X124.337 Y161.201 E36.34791
G1 X124.456 Y161.162 E36.35208
G1 X124.537 Y161.001 E36.35807
G1 X124.537 Y160.801 E36.36473
G1 X125.515 Y160.801 E36.39725
G1 X125.634 Y160.762 E36.40142
G1 X125.715 Y160.601 E36.40741
G1 X125.715 Y59.399 E39.77341
G1 X125.676 Y59.28 E39.77757
G1 X125.515 Y59.199 E39.78357
G1 X124.538 Y59.199 E39.81606
G1 X124.538 Y58.999 E39.82271
G1 X124.499 Y58.88 E39.82688
G1 X124.338 Y58.799 E39.83287
G1 X121.421 Y58.799 E39.92989
G1 X121.401 Y58.738 E39.93203
G1 X121.328 Y58.637 E39.93617
G1 X121.288 Y58.624 E39.93757
G0 F9000 X121.719 Y58.399
G1 F1800 X121.756 Y58.303 E39.94099
G1 X122.038 Y57.926 E39.95665
G1 X122.152 Y57.853 E39.96115
G1 X122.38 Y57.799 E39.96895
G1 X123.577 Y57.801 E40.00876
G1 X123.772 Y57.85 E40.01545
G1 X123.924 Y57.961 E40.02171
G1 X124.274 Y58.399 E40.04035
G1 X121.719 Y58.399 E40.12533
G1 F2400 E39.32533
G0 F9000 X126.168 Y58.746
G0 X126.168 Y161.254
G0 X121.805 Y161.601
G1 F2400 E40.12533
G1 F1800 X124.264 Y161.601 E40.20712
G1 X124.247 Y161.624 E40.20807
G1 X123.925 Y162.083 E40.22672
G1 X123.822 Y162.146 E40.23074
G1 X123.592 Y162.201 E40.2386
G1 X122.314 Y162.199 E40.28111
G1 X122.169 Y162.145 E40.28625
G1 X122.067 Y162.071 E40.29045
G1 X121.989 Y161.971 E40.29466
G1 X121.805 Y161.601 E40.30841
G1 F2400 E39.50841
G0 F9000 X109.712 Y161.386
G1 F2400 E40.30841
G1 F1800 X109.609 Y161.829 E40.32354
G1 X109.282 Y162.31 E40.34288
G1 X109.058 Y162.492 E40.35248
G1 X108.774 Y162.601 E40.3626
G1 X107.337 Y162.601 E40.41039
G1 X106.993 Y162.517 E40.42217
G1 X106.732 Y162.332 E40.43281
G1 X106.461 Y162.001 E40.44704
G1 X106.32 Y161.769 E40.45607
G1 X106.233 Y161.392 E40.46894
G1 X106.326 Y161.362 E40.47219
G1 X106.402 Y161.246 E40.4768
G1 X106.412 Y161.201 E40.47833
G1 X109.55 Y161.201 E40.5827
G1 X109.574 Y161.268 E40.58507
G1 X109.65 Y161.367 E40.58922
G1 X109.712 Y161.386 E40.59138
G0 F9000 X109.251 Y161.601
G1 F1800 X109.236 Y161.666 E40.5936
G1 X108.985 Y162.034 E40.60841
G1 X108.851 Y162.143 E40.61416
G1 X108.701 Y162.201 E40.61951
G1 X107.386 Y162.201 E40.66324
G1 X107.161 Y162.147 E40.67094
G1 X107.008 Y162.037 E40.67721
G1 X106.787 Y161.768 E40.68879
G1 X106.695 Y161.617 E40.69467
G1 X106.692 Y161.601 E40.69521
G1 X109.251 Y161.601 E40.78032
G1 F2400 E39.98032
G0 F9000 X123.684 Y160.854
G0 X124.537 Y160.401
;TYPE:SUPPORT-INTERFACE
G1 F2400 E40.78032
G1 F1800 X124.538 Y59.599 E44.13301
G1 X125.315 Y59.599 E44.15885
G1 X125.315 Y160.401 E47.51154
G1 X124.537 Y160.401 E47.53742
G1 F2400 E46.73742
G0 F9000 X123.684 Y160.854
G0 X123.684 Y161.254
G0 X126.168 Y161.254
G0 X126.18 Y59.988
G0 X124.926 Y59.988
G1 F2400 E47.53742
