;FLAVOR:Marlin
;TIME:2961
;Filament used: 2.82075m
;Layer height: 0.2
;MINX:69.4
;MINY:72.8
;MINZ:0.2
;MAXX:150.595
;MAXY:147.2
;MAXZ:27
;TARGET_MACHINE.NAME:Creality Ender-3 V3 SE
;Generated with Cura_SteamEngine 5.6.0
M140 S60
M105
M190 S60
M104 S200
M105
M109 S200
M82 ;absolute extrusion mode
M220 S100 ;Reset Feedrate
M221 S100 ;Reset Flowrate

G28 ;Home

M420 S1; Enable mesh leveling

G92 E0 ;Reset Extruder
G1 Z2.0 F3000 ;Move Z Axis up
G1 X10.1 Y20 Z0.28 F5000.0 ;Move to start position
M109 S[material_print_temperature_layer_0]
G1 X10.1 Y145.0 Z0.28 F1500.0 E15 ;Draw the first line
G1 X10.4 Y145.0 Z0.28 F5000.0 ;Move to side a little
G1 X10.4 Y20 Z0.28 F1500.0 E30 ;Draw the second line
G92 E0  ;Reset Extruder
G1 E-1.0000 F1800 ;Retract a bit
G1 Z2.0 F3000 ;Move Z Axis up
G1 E0.0000 F1800 

G92 E0
G92 E0
G1 F2400 E-0.8
;LAYER_COUNT:135
;LAYER:0
M107
G0 F9000 X72.853 Y75.816 Z0.2
;TYPE:SKIRT
G1 F2400 E0
G1 F1800 X73.59 Y75.179 E0.0324
G1 X74.379 Y74.611 E0.06473
G1 X75.216 Y74.113 E0.09713
G1 X76.094 Y73.692 E0.12951
G1 X77.007 Y73.35 E0.16194
G1 X77.945 Y73.09 E0.19432
G1 X78.911 Y72.912 E0.22699
G1 X80.055 Y72.815 E0.26517
G1 X80.825 Y72.8 E0.29079
G1 X82.026 Y72.812 E0.33073
G1 X83.002 Y72.866 E0.36325
G1 X84.07 Y73.027 E0.39917
G1 X87.167 Y73.651 E0.50425
G1 X89.641 Y74.075 E0.58773
G1 X91.36 Y74.339 E0.64558
G1 X92.314 Y74.538 E0.67799
G1 X93.245 Y74.819 E0.71033
G1 X94.107 Y75.163 E0.7412
G1 X96.884 Y76.423 E0.84263
G1 X99.259 Y77.415 E0.92824
G1 X101.556 Y78.301 E1.01012
G1 X103.934 Y79.14 E1.09399
G1 X106.35 Y79.917 E1.1784
G1 X108.77 Y80.622 E1.26224
G1 X111.167 Y81.244 E1.3446
G1 X113.691 Y81.825 E1.43075
G1 X116.118 Y82.313 E1.51308
G1 X118.574 Y82.734 E1.59596
G1 X121.094 Y83.093 E1.68062
G1 X123.583 Y83.375 E1.76394
G1 X126.12 Y83.593 E1.84863
G1 X128.578 Y83.732 E1.93051
G1 X131.163 Y83.805 E2.01653
G1 X132.47 Y83.814 E2.06
G1 X136.234 Y83.815 E2.18519
G1 X136.928 Y83.824 E2.20827
G1 X137.628 Y83.857 E2.23158
G1 X138.178 Y83.902 E2.24994
G1 X139.074 Y84.014 E2.27997
G1 X140.024 Y84.215 E2.31226
G1 X140.51 Y84.342 E2.32897
G1 X141.438 Y84.629 E2.36128
G1 X142.257 Y84.962 E2.39069
G1 X142.735 Y85.179 E2.40815
G1 X143.603 Y85.622 E2.44056
G1 X144.387 Y86.112 E2.47131
G1 X144.831 Y86.416 E2.48921
G1 X145.552 Y86.959 E2.51923
G1 X146.299 Y87.632 E2.55267
G1 X146.66 Y87.989 E2.56955
G1 X147.321 Y88.703 E2.60192
G1 X147.878 Y89.42 E2.63211
G1 X148.182 Y89.849 E2.6496
G1 X148.707 Y90.665 E2.68187
G1 X149.098 Y91.401 E2.70959
G1 X149.319 Y91.859 E2.72651
G1 X149.703 Y92.756 E2.75896
G1 X150.002 Y93.67 E2.79095
G1 X150.145 Y94.182 E2.80863
G1 X150.361 Y95.129 E2.84093
G1 X150.484 Y95.996 E2.87006
G1 X150.534 Y96.505 E2.88707
G1 X150.587 Y97.429 E2.91785
G1 X150.595 Y98.318 E2.94742
G1 X150.589 Y98.76 E2.96212
G1 X150.564 Y99.351 E2.9818
G1 X150.512 Y100.001 E3.00349
G1 X150.42 Y100.89 E3.03321
G1 X150.187 Y103.572 E3.12275
G1 X150.041 Y106.049 E3.20528
G1 X149.965 Y108.572 E3.28923
G1 X149.959 Y111.084 E3.37278
G1 X150.027 Y113.628 E3.45743
G1 X150.162 Y116.104 E3.5399
G1 X150.436 Y119.297 E3.64649
G1 X150.534 Y120.275 E3.67918
G1 X150.587 Y121.202 E3.71007
G1 X150.595 Y122.09 E3.7396
G1 X150.589 Y122.537 E3.75447
G1 X150.555 Y123.234 E3.77768
G1 X150.512 Y123.756 E3.7951
G1 X150.4 Y124.652 E3.82513
G1 X150.212 Y125.552 E3.85571
G1 X150.084 Y126.05 E3.87282
G1 X149.811 Y126.947 E3.904
G1 X149.457 Y127.834 E3.93577
G1 X149.239 Y128.313 E3.95327
G1 X148.796 Y129.181 E3.98568
G1 X148.302 Y129.973 E4.01673
G1 X147.998 Y130.417 E4.03463
G1 X147.455 Y131.138 E4.06465
G1 X146.782 Y131.885 E4.09809
G1 X146.425 Y132.246 E4.11497
G1 X145.711 Y132.907 E4.14734
G1 X144.994 Y133.464 E4.17753
G1 X144.565 Y133.768 E4.19502
G1 X143.749 Y134.293 E4.22729
G1 X142.996 Y134.693 E4.25565
G1 X142.536 Y134.915 E4.27264
G1 X141.641 Y135.295 E4.30498
G1 X140.764 Y135.582 E4.33567
G1 X140.252 Y135.726 E4.35336
G1 X139.305 Y135.943 E4.38568
G1 X138.412 Y136.071 E4.41568
G1 X137.902 Y136.121 E4.43273
G1 X136.993 Y136.173 E4.46301
G1 X136.02 Y136.186 E4.49537
G1 X132.491 Y136.186 E4.61275
G1 X129.907 Y136.223 E4.6987
G1 X127.339 Y136.332 E4.78419
G1 X124.865 Y136.507 E4.86668
G1 X122.393 Y136.752 E4.9493
G1 X119.83 Y137.08 E5.03524
G1 X117.367 Y137.467 E5.11817
G1 X114.907 Y137.924 E5.20139
G1 X112.446 Y138.452 E5.2851
G1 X110.035 Y139.046 E5.36769
G1 X107.526 Y139.734 E5.45422
G1 X105.198 Y140.448 E5.53521
G1 X102.753 Y141.273 E5.62104
G1 X100.415 Y142.135 E5.70392
G1 X98.092 Y143.068 E5.78718
G1 X95.76 Y144.083 E5.87177
G1 X94.145 Y144.821 E5.93083
G1 X93.241 Y145.184 E5.96323
G1 X92.306 Y145.466 E5.99571
G1 X91.299 Y145.672 E6.0299
G1 X88.357 Y146.133 E6.12894
G1 X85.934 Y146.586 E6.21093
G1 X85.166 Y146.752 E6.23706
G1 X84.018 Y146.982 E6.276
G1 X83.059 Y147.128 E6.30827
G1 X82.192 Y147.187 E6.33717
G1 X81.485 Y147.2 E6.36069
G1 X80.288 Y147.189 E6.4005
G1 X79.315 Y147.136 E6.43291
G1 X78.351 Y146.996 E6.46531
G1 X77.403 Y146.772 E6.49771
G1 X76.479 Y146.464 E6.53011
G1 X75.586 Y146.077 E6.56248
G1 X74.761 Y145.63 E6.59369
G1 X73.919 Y145.071 E6.6273
G1 X73.161 Y144.464 E6.6596
G1 X72.456 Y143.79 E6.69204
G1 X71.815 Y143.058 E6.7244
G1 X71.281 Y142.33 E6.75443
G1 X70.741 Y141.435 E6.7892
G1 X70.314 Y140.559 E6.82161
G1 X69.968 Y139.649 E6.85399
G1 X69.702 Y138.712 E6.88639
G1 X69.519 Y137.742 E6.91922
G1 X69.415 Y136.535 E6.95951
G1 X69.4 Y135.858 E6.98203
G1 X69.401 Y120.349 E7.49786
G1 X69.411 Y119.626 E7.52191
G1 X69.447 Y118.894 E7.54629
G1 X69.67 Y116.251 E7.63451
G1 X69.807 Y113.777 E7.71692
G1 X69.878 Y111.221 E7.80197
G1 X69.876 Y108.725 E7.88498
G1 X69.803 Y106.186 E7.96947
G1 X69.659 Y103.692 E8.05255
G1 X69.445 Y101.066 E8.14019
G1 X69.413 Y100.494 E8.15924
G1 X69.4 Y99.87 E8.18
G1 X69.401 Y84.354 E8.69606
G1 X69.412 Y83.63 E8.72015
G1 X69.47 Y82.657 E8.75257
G1 X69.615 Y81.694 E8.78496
G1 X69.835 Y80.781 E8.81619
G1 X70.156 Y79.825 E8.84973
G1 X70.549 Y78.934 E8.88212
G1 X71 Y78.112 E8.91331
G1 X71.561 Y77.273 E8.94688
G1 X72.127 Y76.569 E8.97692
G1 X72.853 Y75.816 E9.01171
G0 F9000 X73.115 Y76.118
G1 F1800 X73.824 Y75.503 E9.04293
G1 X74.584 Y74.954 E9.07411
G1 X75.39 Y74.473 E9.10533
G1 X76.235 Y74.066 E9.13652
G1 X77.114 Y73.735 E9.16776
G1 X78.018 Y73.483 E9.19898
G1 X78.945 Y73.311 E9.23033
G1 X80.089 Y73.214 E9.26852
G1 X80.821 Y73.2 E9.29287
G1 X82.004 Y73.211 E9.33222
G1 X82.943 Y73.262 E9.3635
G1 X83.991 Y73.419 E9.39874
G1 X87.092 Y74.044 E9.50396
G1 X89.573 Y74.469 E9.58768
G1 X91.279 Y74.731 E9.64508
G1 X92.199 Y74.921 E9.67633
G1 X93.097 Y75.191 E9.70752
G1 X93.959 Y75.535 E9.73839
G1 X96.73 Y76.792 E9.83959
G1 X99.115 Y77.788 E9.92555
G1 X101.416 Y78.675 E10.00758
G1 X103.812 Y79.521 E10.09209
G1 X106.231 Y80.299 E10.1766
G1 X108.663 Y81.007 E10.26085
G1 X111.077 Y81.634 E10.3438
G1 X113.601 Y82.215 E10.42995
G1 X116.043 Y82.706 E10.51279
G1 X118.518 Y83.13 E10.59631
G1 X121.038 Y83.489 E10.68097
G1 X123.549 Y83.774 E10.76503
G1 X126.086 Y83.991 E10.84972
G1 X128.567 Y84.132 E10.93237
G1 X131.152 Y84.205 E11.01838
G1 X132.467 Y84.214 E11.06212
G1 X136.229 Y84.215 E11.18724
G1 X136.909 Y84.224 E11.20986
G1 X137.596 Y84.256 E11.23274
G1 X138.128 Y84.299 E11.25049
G1 X139.024 Y84.411 E11.28052
G1 X139.923 Y84.602 E11.31109
G1 X140.392 Y84.724 E11.32721
G1 X141.288 Y85 E11.35839
G1 X142.092 Y85.326 E11.38725
G1 X142.554 Y85.535 E11.40411
G1 X143.391 Y85.961 E11.43535
G1 X144.161 Y86.442 E11.46554
G1 X144.59 Y86.736 E11.48284
G1 X145.311 Y87.279 E11.51286
G1 X146.018 Y87.916 E11.54451
G1 X146.367 Y88.261 E11.56084
G1 X147.005 Y88.948 E11.59202
G1 X147.552 Y89.652 E11.62167
G1 X147.846 Y90.066 E11.63856
G1 X148.354 Y90.853 E11.66972
G1 X148.738 Y91.575 E11.69692
G1 X148.952 Y92.017 E11.71325
G1 X149.323 Y92.88 E11.74449
G1 X149.617 Y93.778 E11.77592
G1 X149.755 Y94.272 E11.79298
G1 X149.965 Y95.185 E11.82414
G1 X150.086 Y96.036 E11.85273
G1 X150.135 Y96.528 E11.86917
G1 X150.187 Y97.433 E11.89932
G1 X150.195 Y98.312 E11.92856
G1 X150.189 Y98.743 E11.9429
G1 X150.165 Y99.319 E11.96207
G1 X150.114 Y99.96 E11.98346
G1 X150.022 Y100.849 E12.01318
G1 X149.789 Y103.537 E12.10292
G1 X149.641 Y106.037 E12.18622
G1 X149.565 Y108.56 E12.27017
G1 X149.559 Y111.083 E12.35409
G1 X149.627 Y113.639 E12.43913
G1 X149.763 Y116.138 E12.52237
G1 X150.038 Y119.337 E12.62916
G1 X150.135 Y120.298 E12.66129
G1 X150.187 Y121.206 E12.69154
G1 X150.195 Y122.084 E12.72074
G1 X150.189 Y122.518 E12.73518
G1 X150.156 Y123.202 E12.75795
G1 X150.115 Y123.706 E12.77477
G1 X150.003 Y124.602 E12.8048
G1 X149.824 Y125.453 E12.83373
G1 X149.701 Y125.934 E12.85024
G1 X149.428 Y126.831 E12.88143
G1 X149.093 Y127.669 E12.91144
G1 X148.883 Y128.132 E12.92835
G1 X148.457 Y128.969 E12.95959
G1 X147.972 Y129.747 E12.99008
G1 X147.678 Y130.176 E13.00738
G1 X147.135 Y130.897 E13.0374
G1 X146.498 Y131.604 E13.06905
G1 X146.153 Y131.953 E13.08537
G1 X145.466 Y132.591 E13.11656
G1 X144.762 Y133.138 E13.14621
G1 X144.348 Y133.432 E13.1631
G1 X143.561 Y133.94 E13.19425
G1 X142.822 Y134.333 E13.22209
G1 X142.379 Y134.547 E13.23846
G1 X141.516 Y134.915 E13.26966
G1 X140.656 Y135.197 E13.29976
G1 X140.162 Y135.336 E13.31683
G1 X139.248 Y135.547 E13.34803
G1 X138.373 Y135.673 E13.37743
G1 X137.879 Y135.722 E13.39394
G1 X136.988 Y135.773 E13.42363
G1 X136.015 Y135.786 E13.45599
G1 X132.485 Y135.786 E13.5734
G1 X129.89 Y135.823 E13.65972
G1 X127.322 Y135.932 E13.74521
G1 X124.834 Y136.108 E13.82817
G1 X122.342 Y136.355 E13.91146
G1 X119.779 Y136.683 E13.9974
G1 X117.305 Y137.072 E14.08069
G1 X114.823 Y137.533 E14.16466
G1 X112.362 Y138.061 E14.24837
G1 X109.929 Y138.66 E14.33171
G1 X107.42 Y139.349 E14.41825
G1 X105.07 Y140.069 E14.5
G1 X102.625 Y140.894 E14.58582
G1 X100.266 Y141.764 E14.66945
G1 X97.932 Y142.701 E14.7531
G1 X95.6 Y143.716 E14.83769
G1 X93.995 Y144.45 E14.89639
G1 X93.125 Y144.801 E14.9276
G1 X92.225 Y145.074 E14.95888
G1 X91.237 Y145.277 E14.99242
G1 X88.295 Y145.738 E15.09147
G1 X85.849 Y146.195 E15.17423
G1 X85.087 Y146.36 E15.20016
G1 X83.957 Y146.587 E15.2385
G1 X83.032 Y146.729 E15.26962
G1 X82.185 Y146.787 E15.29786
G1 X81.488 Y146.8 E15.32105
G1 X80.309 Y146.79 E15.36026
G1 X79.372 Y146.74 E15.39147
G1 X78.443 Y146.607 E15.42269
G1 X77.529 Y146.392 E15.45392
G1 X76.638 Y146.097 E15.48513
G1 X75.777 Y145.725 E15.51633
G1 X74.952 Y145.278 E15.54754
G1 X74.169 Y144.759 E15.57878
G1 X73.437 Y144.174 E15.60995
G1 X72.757 Y143.526 E15.64119
G1 X72.138 Y142.821 E15.67239
G1 X71.604 Y142.093 E15.70242
G1 X71.1 Y141.259 E15.73483
G1 X70.688 Y140.416 E15.76604
G1 X70.353 Y139.539 E15.79726
G1 X70.095 Y138.637 E15.82847
G1 X69.918 Y137.708 E15.85992
G1 X69.814 Y136.501 E15.90022
G1 X69.8 Y135.858 E15.92161
G1 X69.801 Y120.355 E16.43724
G1 X69.811 Y119.645 E16.46086
G1 X69.846 Y118.927 E16.48477
G1 X70.068 Y116.284 E16.57298
G1 X70.207 Y113.788 E16.65613
G1 X70.278 Y111.232 E16.74117
G1 X70.276 Y108.725 E16.82456
G1 X70.203 Y106.175 E16.9094
G1 X70.058 Y103.659 E16.99323
G1 X69.844 Y101.044 E17.08049
G1 X69.813 Y100.486 E17.09908
G1 X69.8 Y99.87 E17.11957
G1 X69.801 Y84.36 E17.63544
G1 X69.811 Y83.653 E17.65895
G1 X69.866 Y82.716 E17.69017
G1 X70.004 Y81.788 E17.72138
G1 X70.224 Y80.875 E17.75261
G1 X70.522 Y79.986 E17.7838
G1 X70.9 Y79.126 E17.81504
G1 X71.351 Y78.304 E17.84623
G1 X71.873 Y77.524 E17.87744
G1 X72.439 Y76.82 E17.90749
G1 X73.115 Y76.118 E17.9399
G0 F9000 X73.377 Y76.42
G1 F1800 X74.059 Y75.827 E17.96996
G1 X74.79 Y75.297 E17.99999
G1 X75.564 Y74.833 E18.03001
G1 X76.377 Y74.44 E18.06004
G1 X77.222 Y74.12 E18.09009
G1 X78.092 Y73.876 E18.12015
G1 X78.979 Y73.71 E18.15016
G1 X80.123 Y73.613 E18.18835
G1 X80.818 Y73.6 E18.21147
G1 X81.983 Y73.61 E18.25022
G1 X82.884 Y73.658 E18.28023
G1 X83.912 Y73.811 E18.31479
G1 X87.017 Y74.437 E18.42015
G1 X89.505 Y74.863 E18.5041
G1 X91.199 Y75.123 E18.5611
G1 X92.084 Y75.304 E18.59115
G1 X92.949 Y75.563 E18.62118
G1 X93.811 Y75.907 E18.65205
G1 X96.576 Y77.161 E18.75303
G1 X98.971 Y78.161 E18.83935
G1 X101.276 Y79.049 E18.92151
G1 X103.69 Y79.902 E19.00666
G1 X106.112 Y80.681 E19.09128
G1 X108.556 Y81.392 E19.17594
G1 X110.987 Y82.024 E19.25948
G1 X113.511 Y82.605 E19.34563
G1 X115.962 Y83.098 E19.42878
G1 X118.462 Y83.526 E19.51314
G1 X120.982 Y83.885 E19.5978
G1 X123.515 Y84.173 E19.68259
G1 X126.052 Y84.389 E19.76728
G1 X128.556 Y84.532 E19.8507
G1 X131.141 Y84.605 E19.93671
G1 X132.464 Y84.614 E19.98072
G1 X136.224 Y84.615 E20.10577
G1 X136.891 Y84.624 E20.12796
G1 X137.564 Y84.655 E20.15037
G1 X138.078 Y84.696 E20.16752
G1 X138.974 Y84.808 E20.19755
G1 X139.823 Y84.989 E20.22642
G1 X140.275 Y85.106 E20.24195
G1 X141.138 Y85.371 E20.27198
G1 X141.927 Y85.69 E20.30028
G1 X142.373 Y85.892 E20.31657
G1 X143.179 Y86.3 E20.34662
G1 X143.935 Y86.772 E20.37626
G1 X144.349 Y87.056 E20.39296
G1 X145.07 Y87.599 E20.42298
G1 X145.737 Y88.201 E20.45286
G1 X146.074 Y88.533 E20.4686
G1 X146.689 Y89.194 E20.49863
G1 X147.226 Y89.884 E20.52771
G1 X147.51 Y90.283 E20.544
G1 X148.001 Y91.041 E20.57403
G1 X148.378 Y91.749 E20.60071
G1 X148.585 Y92.176 E20.61649
G1 X148.943 Y93.005 E20.64653
G1 X149.232 Y93.885 E20.67734
G1 X149.365 Y94.362 E20.69381
G1 X149.569 Y95.242 E20.72385
G1 X149.688 Y96.076 E20.75187
G1 X149.736 Y96.551 E20.76775
G1 X149.787 Y97.437 E20.79727
G1 X149.795 Y98.306 E20.82617
G1 X149.789 Y98.727 E20.84018
G1 X149.766 Y99.287 E20.85882
G1 X149.716 Y99.919 E20.8799
G1 X149.625 Y100.808 E20.90963
G1 X149.391 Y103.502 E20.99957
G1 X149.241 Y106.025 E21.08363
G1 X149.165 Y108.548 E21.16758
G1 X149.159 Y111.082 E21.25186
G1 X149.227 Y113.65 E21.33731
G1 X149.364 Y116.172 E21.42131
G1 X149.64 Y119.378 E21.52834
G1 X149.736 Y120.321 E21.55986
G1 X149.787 Y121.21 E21.58948
G1 X149.795 Y122.078 E21.61835
G1 X149.789 Y122.499 E21.63236
G1 X149.757 Y123.17 E21.6547
G1 X149.718 Y123.656 E21.67092
G1 X149.606 Y124.552 E21.70095
G1 X149.436 Y125.354 E21.72822
G1 X149.318 Y125.818 E21.74414
G1 X149.057 Y126.682 E21.77416
G1 X148.728 Y127.504 E21.80361
G1 X148.526 Y127.951 E21.81992
G1 X148.118 Y128.757 E21.84997
G1 X147.642 Y129.521 E21.87991
G1 X147.358 Y129.935 E21.89661
G1 X146.815 Y130.656 E21.92663
G1 X146.213 Y131.323 E21.95651
G1 X145.881 Y131.66 E21.97225
G1 X145.22 Y132.275 E22.00227
G1 X144.53 Y132.812 E22.03136
G1 X144.131 Y133.096 E22.04764
G1 X143.373 Y133.587 E22.07768
G1 X142.648 Y133.973 E22.105
G1 X142.221 Y134.179 E22.12077
G1 X141.391 Y134.535 E22.15081
G1 X140.548 Y134.812 E22.18032
G1 X140.071 Y134.946 E22.1968
G1 X139.191 Y135.151 E22.22685
G1 X138.333 Y135.275 E22.25569
G1 X137.856 Y135.323 E22.27163
G1 X136.983 Y135.373 E22.30071
G1 X136.01 Y135.386 E22.33308
G1 X132.479 Y135.386 E22.45052
G1 X129.873 Y135.423 E22.53721
G1 X127.305 Y135.532 E22.6227
G1 X124.803 Y135.709 E22.70612
G1 X122.291 Y135.958 E22.79008
G1 X119.728 Y136.286 E22.87602
G1 X117.243 Y136.677 E22.95969
G1 X114.739 Y137.142 E23.0444
G1 X112.278 Y137.67 E23.12811
G1 X109.823 Y138.274 E23.2122
G1 X107.314 Y138.964 E23.29875
G1 X104.942 Y139.69 E23.38125
G1 X102.497 Y140.515 E23.46708
G1 X100.117 Y141.393 E23.55145
G1 X97.772 Y142.334 E23.63549
G1 X95.44 Y143.349 E23.72008
G1 X93.845 Y144.079 E23.77843
G1 X93.008 Y144.418 E23.80846
G1 X92.144 Y144.682 E23.83851
G1 X91.175 Y144.882 E23.87142
G1 X88.233 Y145.343 E23.97046
G1 X85.764 Y145.804 E24.054
G1 X85.008 Y145.968 E24.07973
G1 X83.896 Y146.192 E24.11746
G1 X83.004 Y146.33 E24.14748
G1 X82.177 Y146.387 E24.17505
G1 X81.491 Y146.4 E24.19787
G1 X80.33 Y146.391 E24.23649
G1 X79.428 Y146.344 E24.26653
G1 X78.534 Y146.217 E24.29656
G1 X77.654 Y146.012 E24.32662
G1 X76.796 Y145.73 E24.35665
G1 X75.967 Y145.373 E24.38668
G1 X75.172 Y144.944 E24.41672
G1 X74.418 Y144.446 E24.44678
G1 X73.712 Y143.884 E24.47679
G1 X73.057 Y143.262 E24.50683
G1 X72.461 Y142.584 E24.53686
G1 X71.927 Y141.856 E24.56689
G1 X71.459 Y141.083 E24.59694
G1 X71.061 Y140.272 E24.62699
G1 X70.737 Y139.429 E24.65703
G1 X70.488 Y138.561 E24.68706
G1 X70.317 Y137.674 E24.7171
G1 X70.213 Y136.467 E24.7574
G1 X70.2 Y135.858 E24.77766
G1 X70.201 Y120.361 E25.29309
G1 X70.211 Y119.664 E25.31628
G1 X70.245 Y118.96 E25.33972
G1 X70.466 Y116.317 E25.42793
G1 X70.607 Y113.799 E25.51181
