;FLAVOR:Marlin
;TIME:1592
;Filament used: 2.75396m
;Layer height: 0.2
;MINX:75.935
;MINY:36.411
;MINZ:0.2
;MAXX:144.074
;MAXY:169.034
;MAXZ:10
;TARGET_MACHINE.NAME:Creality Ender-3 V3 SE
;Generated with Cura_SteamEngine 5.6.0
M104 S228
M105
M109 S228
M82 ;absolute extrusion mode
M220 S100 ;Reset Feedrate
M221 S100 ;Reset Flowrate

G28 ;Home

M420 S1; Enable mesh leveling

G92 E0 ;Reset Extruder
G1 Z2.0 F3000 ;Move Z Axis up
G1 X10.1 Y20 Z0.28 F5000.0 ;Move to start position
M109 S[material_print_temperature_layer_0]
G1 X10.1 Y145.0 Z0.28 F1500.0 E15 ;Draw the first line
G1 X10.4 Y145.0 Z0.28 F5000.0 ;Move to side a little
G1 X10.4 Y20 Z0.28 F1500.0 E30 ;Draw the second line
G92 E0  ;Reset Extruder
G1 E-1.0000 F1800 ;Retract a bit
G1 Z2.0 F3000 ;Move Z Axis up
G1 E0.0000 F1800 

G92 E0
G92 E0
G1 F2400 E-0.8
;LAYER_COUNT:50
;LAYER:0
M107
G0 F9000 X81.516 Y51.791 Z0.2
;TYPE:SKIRT
G1 F2400 E0
G1 F1800 X82.152 Y50.857 E0.03758
G1 X82.885 Y49.856 E0.07885
G1 X83.396 Y49.202 E0.10645
G1 X83.939 Y48.541 E0.13491
G1 X84.529 Y47.857 E0.16495
G1 X85.515 Y46.792 E0.21322
G1 X86.157 Y46.149 E0.24344
G1 X86.954 Y45.392 E0.28
G1 X87.642 Y44.777 E0.31069
G1 X88.278 Y44.238 E0.33842
G1 X88.96 Y43.687 E0.36758
G1 X89.904 Y42.972 E0.40697
G1 X90.612 Y42.467 E0.4359
G1 X91.558 Y41.838 E0.47368
G1 X92.347 Y41.345 E0.50462
G1 X93.567 Y40.639 E0.55151
G1 X94.426 Y40.18 E0.5839
G1 X95.118 Y39.834 E0.60963
G1 X95.892 Y39.47 E0.63808
G1 X96.987 Y38.996 E0.67777
G1 X97.807 Y38.668 E0.70714
G1 X98.902 Y38.272 E0.74587
G1 X99.691 Y38.009 E0.77353
G1 X100.852 Y37.662 E0.81383
G1 X101.708 Y37.435 E0.84329
G1 X102.805 Y37.181 E0.88074
G1 X104.004 Y36.942 E0.9214
G1 X104.85 Y36.803 E0.94992
G1 X105.977 Y36.649 E0.98775
G1 X106.848 Y36.557 E1.01688
G1 X108.063 Y36.466 E1.05741
G1 X109.18 Y36.42 E1.09459
G1 X110.071 Y36.411 E1.12423
G1 X111.242 Y36.433 E1.16318
G1 X112.15 Y36.478 E1.19342
G1 X112.921 Y36.535 E1.21913
G1 X113.805 Y36.622 E1.24867
G1 X114.973 Y36.774 E1.28785
G1 X116.175 Y36.973 E1.32837
G1 X116.975 Y37.13 E1.35549
G1 X117.836 Y37.322 E1.38483
G1 X119.261 Y37.691 E1.43379
G1 X120.151 Y37.955 E1.46466
G1 X121.205 Y38.302 E1.50157
G1 X121.795 Y38.515 E1.52243
G1 X123.109 Y39.03 E1.56938
G1 X123.905 Y39.375 E1.59823
G1 X124.971 Y39.872 E1.63735
G1 X125.814 Y40.3 E1.66879
G1 X126.751 Y40.809 E1.70426
G1 X127.543 Y41.271 E1.73476
G1 X128.512 Y41.874 E1.77272
G1 X129.261 Y42.375 E1.80269
G1 X130.202 Y43.042 E1.84105
G1 X130.933 Y43.595 E1.87154
G1 X131.565 Y44.098 E1.8984
G1 X132.227 Y44.653 E1.92713
G1 X133.105 Y45.436 E1.96626
G1 X133.745 Y46.041 E1.99555
G1 X134.558 Y46.86 E2.03394
G1 X135.395 Y47.761 E2.07484
G1 X136.119 Y48.596 E2.1116
G1 X136.697 Y49.305 E2.14202
G1 X137.411 Y50.236 E2.18105
G1 X137.89 Y50.903 E2.20836
G1 X138.56 Y51.891 E2.24806
G1 X139.036 Y52.645 E2.27772
G1 X139.601 Y53.596 E2.31451
G1 X139.865 Y54.068 E2.3325
G1 X140.58 Y55.445 E2.3841
G1 X140.951 Y56.225 E2.41283
G1 X141.411 Y57.267 E2.45072
G1 X141.757 Y58.125 E2.48149
G1 X142.143 Y59.164 E2.51835
G1 X142.433 Y60.026 E2.5486
G1 X142.682 Y60.829 E2.57656
G1 X142.902 Y61.607 E2.60345
G1 X143.207 Y62.835 E2.64554
G1 X143.462 Y64.033 E2.68628
G1 X143.647 Y65.079 E2.72161
G1 X143.775 Y65.954 E2.75102
G1 X143.878 Y66.811 E2.77973
G1 X143.966 Y67.735 E2.8106
G1 X144.037 Y68.816 E2.84663
G1 X144.074 Y70.046 E2.88756
G1 X144.07 Y71.198 E2.92588
G1 X144.051 Y71.805 E2.94607
G1 X143.968 Y73.211 E2.99292
G1 X143.882 Y74.124 E3.02342
G1 X143.743 Y75.256 E3.06135
G1 X143.661 Y75.799 E3.07962
G1 X143.455 Y76.962 E3.1189
G1 X143.286 Y77.787 E3.14691
G1 X142.945 Y79.2 E3.19526
G1 X142.342 Y81.52 E3.27499
G1 X141.769 Y84.016 E3.36016
G1 X141.28 Y86.445 E3.44257
G1 X140.856 Y88.922 E3.52616
G1 X140.501 Y91.419 E3.61004
G1 X140.219 Y93.908 E3.69336
G1 X140.004 Y96.414 E3.77701
G1 X139.863 Y98.931 E3.86086
G1 X139.79 Y101.469 E3.94531
G1 X139.79 Y103.98 E4.02882
G1 X139.861 Y106.483 E4.11211
G1 X140.003 Y108.978 E4.19523
G1 X140.217 Y111.528 E4.28034
G1 X140.499 Y114.003 E4.36319
G1 X140.85 Y116.474 E4.4462
G1 X141.278 Y118.975 E4.53059
G1 X141.768 Y121.42 E4.61353
G1 X142.336 Y123.896 E4.69802
G1 X142.907 Y126.081 E4.77314
G1 X143.203 Y127.301 E4.81489
G1 X143.461 Y128.509 E4.85597
G1 X143.647 Y129.555 E4.89131
G1 X143.774 Y130.428 E4.92065
G1 X143.911 Y131.6 E4.9599
G1 X143.968 Y132.228 E4.98087
G1 X144.037 Y133.296 E5.01647
G1 X144.074 Y134.526 E5.0574
G1 X144.07 Y135.673 E5.09555
G1 X144.038 Y136.61 E5.12673
G1 X143.968 Y137.702 E5.16312
G1 X143.885 Y138.582 E5.19252
G1 X143.785 Y139.418 E5.22053
G1 X143.657 Y140.3 E5.25017
G1 X143.455 Y141.44 E5.28868
G1 X143.208 Y142.611 E5.32848
G1 X142.999 Y143.461 E5.35759
G1 X142.762 Y144.339 E5.38784
G1 X142.453 Y145.356 E5.42319
G1 X142.163 Y146.221 E5.45354
G1 X141.768 Y147.292 E5.4915
G1 X141.445 Y148.097 E5.52035
G1 X140.821 Y149.501 E5.57145
G1 X140.435 Y150.291 E5.6007
G1 X140.056 Y151.023 E5.62812
G1 X139.491 Y152.039 E5.66678
G1 X139.058 Y152.765 E5.6949
G1 X138.586 Y153.513 E5.72431
G1 X137.917 Y154.504 E5.76408
G1 X137.223 Y155.459 E5.80335
G1 X136.709 Y156.125 E5.83133
G1 X136.165 Y156.795 E5.86003
G1 X135.405 Y157.673 E5.89866
G1 X134.802 Y158.332 E5.92837
G1 X133.998 Y159.154 E5.96661
G1 X133.326 Y159.802 E5.99766
G1 X132.517 Y160.538 E6.03404
G1 X131.841 Y161.118 E6.06366
G1 X130.684 Y162.043 E6.11293
G1 X129.968 Y162.575 E6.1426
G1 X129.303 Y163.044 E6.16966
G1 X128.542 Y163.551 E6.20008
G1 X127.293 Y164.323 E6.24891
G1 X126.557 Y164.744 E6.27712
G1 X125.775 Y165.165 E6.30665
G1 X125.041 Y165.539 E6.33405
G1 X123.961 Y166.045 E6.37372
G1 X123.111 Y166.414 E6.40454
G1 X122.096 Y166.817 E6.44086
G1 X121.216 Y167.137 E6.47201
G1 X119.862 Y167.578 E6.51937
G1 X119.06 Y167.809 E6.54713
G1 X118.165 Y168.044 E6.57791
G1 X117.297 Y168.246 E6.60755
G1 X115.863 Y168.528 E6.65616
G1 X115.037 Y168.661 E6.68398
G1 X113.844 Y168.818 E6.724
G1 X112.997 Y168.902 E6.75231
G1 X111.818 Y168.987 E6.79163
G1 X110.976 Y169.02 E6.81966
G1 X110.104 Y169.034 E6.84866
G1 X109.222 Y169.026 E6.878
G1 X108.06 Y168.978 E6.91668
G1 X106.874 Y168.89 E6.95624
G1 X105.765 Y168.769 E6.99334
G1 X104.849 Y168.641 E7.0241
G1 X103.686 Y168.444 E7.06334
G1 X102.847 Y168.274 E7.09181
G1 X102.055 Y168.095 E7.11881
G1 X101.217 Y167.882 E7.14757
G1 X100.045 Y167.546 E7.18812
G1 X99.15 Y167.259 E7.21938
G1 X97.887 Y166.806 E7.26401
G1 X97.007 Y166.457 E7.2955
G1 X95.966 Y166.007 E7.33322
G1 X95.151 Y165.624 E7.36317
G1 X94.15 Y165.12 E7.40045
G1 X93.349 Y164.685 E7.43076
G1 X92.332 Y164.092 E7.46992
G1 X91.854 Y163.797 E7.4886
G1 X90.644 Y163 E7.53679
G1 X89.948 Y162.505 E7.5652
G1 X89.237 Y161.973 E7.59473
G1 X88.508 Y161.397 E7.62563
G1 X87.691 Y160.712 E7.66109
G1 X86.804 Y159.913 E7.7008
G1 X85.905 Y159.049 E7.74227
G1 X85.326 Y158.452 E7.76993
G1 X84.538 Y157.597 E7.80861
G1 X83.956 Y156.923 E7.83822
G1 X83.266 Y156.078 E7.87451
G1 X82.698 Y155.339 E7.90551
G1 X82.194 Y154.643 E7.93409
G1 X81.693 Y153.918 E7.9634
G1 X81.062 Y152.938 E8.00217
G1 X80.624 Y152.214 E8.03031
G1 X80.07 Y151.233 E8.06778
G1 X79.635 Y150.406 E8.09886
G1 X78.999 Y149.085 E8.14763
G1 X78.624 Y148.233 E8.17859
G1 X78.343 Y147.552 E8.20309
G1 X78.022 Y146.709 E8.23309
G1 X77.624 Y145.559 E8.27357
G1 X77.267 Y144.402 E8.31384
G1 X77.06 Y143.652 E8.33972
G1 X76.775 Y142.484 E8.37971
G1 X76.534 Y141.331 E8.41888
G1 X76.379 Y140.454 E8.4485
G1 X76.217 Y139.345 E8.48578
G1 X76.112 Y138.435 E8.51625
G1 X76.036 Y137.592 E8.5444
G1 X75.978 Y136.718 E8.57353
G1 X75.935 Y135.293 E8.62095
G1 X75.939 Y134.378 E8.65138
G1 X75.964 Y133.562 E8.67854
G1 X76.015 Y132.605 E8.71041
G1 X76.108 Y131.527 E8.7464
G1 X76.213 Y130.609 E8.77713
G1 X76.375 Y129.5 E8.81441
G1 X76.54 Y128.566 E8.84596
G1 X76.764 Y127.491 E8.88248
G1 X76.999 Y126.509 E8.91606
G1 X77.694 Y123.833 E9.00802
G1 X78.256 Y121.377 E9.09182
G1 X78.749 Y118.914 E9.17536
G1 X79.17 Y116.442 E9.25876
G1 X79.522 Y113.952 E9.34241
G1 X79.803 Y111.453 E9.42605
G1 X80.017 Y108.936 E9.51006
G1 X80.155 Y106.44 E9.59321
G1 X80.225 Y103.909 E9.67742
G1 X80.223 Y101.396 E9.761
G1 X80.149 Y98.852 E9.84565
G1 X80.008 Y96.405 E9.92718
G1 X79.79 Y93.846 E10.0126
G1 X79.502 Y91.348 E10.09623
G1 X79.148 Y88.871 E10.17945
G1 X78.721 Y86.387 E10.26328
G1 X78.224 Y83.927 E10.34676
G1 X77.658 Y81.467 E10.43072
G1 X76.99 Y78.9 E10.51894
G1 X76.768 Y77.978 E10.55048
G1 X76.539 Y76.878 E10.58785
G1 X76.428 Y76.256 E10.60886
G1 X76.214 Y74.848 E10.65623
G1 X76.113 Y73.985 E10.68513
G1 X76.015 Y72.854 E10.72289
G1 X75.964 Y71.924 E10.75387
G1 X75.935 Y70.805 E10.7911
G1 X75.939 Y69.895 E10.82137
G1 X75.977 Y68.775 E10.85864
G1 X76.038 Y67.828 E10.8902
G1 X76.14 Y66.735 E10.92671
G1 X76.212 Y66.127 E10.94708
G1 X76.423 Y64.727 E10.99417
G1 X76.539 Y64.085 E11.01587
G1 X76.755 Y63.042 E11.05129
G1 X77.036 Y61.889 E11.09076
G1 X77.27 Y61.036 E11.12018
G1 X77.526 Y60.192 E11.14952
G1 X77.9 Y59.079 E11.18857
G1 X78.194 Y58.277 E11.21698
G1 X78.643 Y57.17 E11.25671
G1 X79.137 Y56.059 E11.29715
G1 X79.61 Y55.088 E11.33308
G1 X80.045 Y54.257 E11.36427
G1 X80.456 Y53.518 E11.3924
G1 X80.885 Y52.79 E11.4205
G1 X81.516 Y51.791 E11.4598
G0 F9000 X81.847 Y52.016
G1 F1800 X82.475 Y51.093 E11.49693
G1 X83.2 Y50.102 E11.53777
G1 X83.705 Y49.456 E11.56505
G1 X84.242 Y48.802 E11.59319
G1 X84.823 Y48.129 E11.62276
G1 X85.809 Y47.064 E11.67103
G1 X86.432 Y46.439 E11.70039
G1 X87.221 Y45.69 E11.73657
G1 X87.901 Y45.082 E11.76691
G1 X88.529 Y44.549 E11.7943
G1 X89.201 Y44.006 E11.82304
G1 X90.136 Y43.298 E11.86205
G1 X90.834 Y42.8 E11.89057
G1 X91.77 Y42.177 E11.92796
G1 X92.547 Y41.691 E11.95845
G1 X93.755 Y40.992 E12.00487
G1 X94.605 Y40.538 E12.03692
G1 X95.288 Y40.196 E12.06232
G1 X96.051 Y39.837 E12.09037
G1 X97.136 Y39.367 E12.1297
G1 X97.943 Y39.044 E12.15861
G1 X99.028 Y38.651 E12.19699
G1 X99.805 Y38.392 E12.22423
G1 X100.954 Y38.049 E12.26411
G1 X101.799 Y37.825 E12.29319
G1 X102.883 Y37.573 E12.3302
G1 X104.069 Y37.337 E12.37042
G1 X104.904 Y37.199 E12.39857
G1 X106.019 Y37.047 E12.436
G1 X106.878 Y36.956 E12.46473
G1 X108.08 Y36.866 E12.50482
G1 X109.184 Y36.82 E12.54157
G1 X110.064 Y36.811 E12.57084
G1 X111.222 Y36.832 E12.60936
G1 X112.121 Y36.877 E12.6393
G1 X112.882 Y36.933 E12.66468
G1 X113.753 Y37.019 E12.69379
G1 X114.908 Y37.169 E12.73253
G1 X116.098 Y37.366 E12.77265
G1 X116.898 Y37.523 E12.79976
G1 X117.736 Y37.709 E12.82831
G1 X119.147 Y38.074 E12.87679
G1 X120.026 Y38.335 E12.90729
G1 X121.069 Y38.678 E12.9438
G1 X121.649 Y38.887 E12.96431
G1 X122.95 Y39.397 E13.01079
G1 X123.736 Y39.737 E13.03927
G1 X124.79 Y40.229 E13.07796
G1 X125.623 Y40.651 E13.10902
G1 X126.55 Y41.155 E13.14411
G1 X127.332 Y41.611 E13.17422
G1 X128.29 Y42.207 E13.21174
G1 X129.03 Y42.701 E13.24134
G1 X129.961 Y43.361 E13.27929
G1 X130.684 Y43.908 E13.30945
G1 X131.308 Y44.405 E13.33598
G1 X131.961 Y44.952 E13.36431
G1 X132.83 Y45.727 E13.40304
G1 X133.461 Y46.323 E13.43191
G1 X134.265 Y47.132 E13.46984
G1 X135.093 Y48.023 E13.5103
G1 X135.809 Y48.849 E13.54666
G1 X136.38 Y49.549 E13.5767
G1 X137.086 Y50.469 E13.61527
G1 X137.559 Y51.127 E13.64223
G1 X138.222 Y52.105 E13.68153
G1 X138.692 Y52.849 E13.7108
G1 X139.252 Y53.792 E13.74727
G1 X139.51 Y54.252 E13.76481
G1 X140.219 Y55.617 E13.81597
G1 X140.585 Y56.386 E13.8443
G1 X141.04 Y57.417 E13.88178
G1 X141.382 Y58.264 E13.91216
G1 X141.764 Y59.292 E13.94864
G1 X142.051 Y60.144 E13.97854
G1 X142.297 Y60.938 E14.00619
G1 X142.514 Y61.704 E14.03267
G1 X142.816 Y62.918 E14.07428
G1 X143.068 Y64.103 E14.11457
G1 X143.251 Y65.137 E14.1495
G1 X143.378 Y66.002 E14.17858
G1 X143.48 Y66.849 E14.20695
G1 X143.567 Y67.761 E14.23742
G1 X143.637 Y68.828 E14.27299
G1 X143.674 Y70.045 E14.31348
G1 X143.67 Y71.186 E14.35143
G1 X143.652 Y71.781 E14.37123
G1 X143.57 Y73.173 E14.41761
G1 X143.485 Y74.075 E14.44774
G1 X143.347 Y75.197 E14.48534
G1 X143.267 Y75.729 E14.50324
G1 X143.063 Y76.882 E14.54218
G1 X142.897 Y77.693 E14.56971
G1 X142.558 Y79.099 E14.61782
G1 X141.955 Y81.419 E14.69754
G1 X141.379 Y83.926 E14.7831
G1 X140.888 Y86.366 E14.86588
G1 X140.462 Y88.854 E14.94984
G1 X140.105 Y91.363 E15.03413
G1 X139.82 Y93.874 E15.11818
G1 X139.606 Y96.38 E15.20183
G1 X139.463 Y98.919 E15.28641
G1 X139.39 Y101.457 E15.37086
G1 X139.39 Y103.98 E15.45478
G1 X139.461 Y106.494 E15.53843
G1 X139.604 Y109.012 E15.62231
G1 X139.819 Y111.562 E15.70743
G1 X140.103 Y114.059 E15.79101
G1 X140.456 Y116.541 E15.87439
G1 X140.886 Y119.054 E15.95919
G1 X141.378 Y121.51 E16.0425
G1 X141.949 Y123.997 E16.12737
G1 X142.518 Y126.176 E16.20228
G1 X142.812 Y127.384 E16.24363
G1 X143.067 Y128.579 E16.28427
G1 X143.251 Y129.613 E16.3192
G1 X143.377 Y130.475 E16.34817
G1 X143.513 Y131.636 E16.38705
G1 X143.569 Y132.254 E16.40769
G1 X143.637 Y133.308 E16.44282
G1 X143.674 Y134.525 E16.48332
G1 X143.67 Y135.66 E16.52107
G1 X143.639 Y136.584 E16.55182
G1 X143.57 Y137.664 E16.58781
G1 X143.488 Y138.534 E16.61688
G1 X143.389 Y139.361 E16.64458
G1 X143.263 Y140.23 E16.67378
G1 X143.064 Y141.357 E16.71185
G1 X142.819 Y142.516 E16.75125
G1 X142.613 Y143.357 E16.78005
G1 X142.379 Y144.223 E16.80988
G1 X142.074 Y145.229 E16.84485
G1 X141.788 Y146.083 E16.8748
G1 X141.397 Y147.143 E16.91238
G1 X141.08 Y147.934 E16.94072
G1 X140.461 Y149.326 E16.99139
G1 X140.08 Y150.107 E17.02029
G1 X139.706 Y150.829 E17.04734
G1 X139.147 Y151.834 E17.08559
G1 X138.719 Y152.552 E17.11339
G1 X138.255 Y153.289 E17.14236
G1 X137.593 Y154.269 E17.18169
G1 X136.906 Y155.215 E17.22058
G1 X136.398 Y155.873 E17.24822
G1 X135.863 Y156.533 E17.27648
G1 X135.11 Y157.403 E17.31475
G1 X134.516 Y158.052 E17.34401
G1 X133.72 Y158.866 E17.38188
G1 X133.057 Y159.506 E17.41253
G1 X132.256 Y160.235 E17.44855
G1 X131.591 Y160.806 E17.47771
G1 X130.446 Y161.722 E17.52648
G1 X129.737 Y162.248 E17.55584
G1 X129.072 Y162.717 E17.5829
G1 X128.331 Y163.211 E17.61252
G1 X127.095 Y163.976 E17.66087
G1 X126.367 Y164.392 E17.68876
G1 X125.593 Y164.809 E17.718
G1 X124.871 Y165.177 E17.74495
G1 X123.802 Y165.678 E17.78422
G1 X122.963 Y166.042 E17.81464
G1 X121.959 Y166.441 E17.85057
G1 X121.092 Y166.757 E17.88126
G1 X119.751 Y167.194 E17.92817
G1 X118.958 Y167.422 E17.95562
G1 X118.074 Y167.654 E17.98602
G1 X117.206 Y167.856 E18.01566
G1 X115.8 Y168.133 E18.06332
G1 X114.985 Y168.264 E18.09077
G1 X113.805 Y168.42 E18.13036
G1 X112.968 Y168.503 E18.15834
G1 X111.802 Y168.587 E18.19722
G1 X110.97 Y168.62 E18.22491
G1 X110.108 Y168.634 E18.25359
G1 X109.238 Y168.626 E18.28253
G1 X108.09 Y168.579 E18.32074
G1 X106.917 Y168.492 E18.35986
G1 X105.82 Y168.373 E18.39656
G1 X104.916 Y168.247 E18.42692
G1 X103.765 Y168.052 E18.46575
G1 X102.935 Y167.884 E18.49391
G1 X102.153 Y167.707 E18.52058
G1 X101.327 Y167.498 E18.54892
G1 X100.167 Y167.165 E18.58906
G1 X99.285 Y166.883 E18.61986
G1 X98.034 Y166.434 E18.66407
G1 X97.166 Y166.09 E18.69512
G1 X96.136 Y165.645 E18.73244
G1 X95.331 Y165.267 E18.76202
G1 X94.341 Y164.769 E18.79888
G1 X93.55 Y164.339 E18.82882
G1 X92.542 Y163.752 E18.86762
G1 X92.074 Y163.463 E18.88591
G1 X90.876 Y162.674 E18.93362
G1 X90.188 Y162.185 E18.9617
G1 X89.485 Y161.659 E18.9909
G1 X88.765 Y161.091 E19.0214
G1 X87.959 Y160.415 E19.05639
G1 X87.081 Y159.625 E19.09567
G1 X86.192 Y158.77 E19.1367
G1 X85.62 Y158.181 E19.16401
G1 X84.841 Y157.336 E19.20223
G1 X84.266 Y156.67 E19.2315
G1 X83.583 Y155.834 E19.2674
G1 X83.022 Y155.104 E19.29802
G1 X82.523 Y154.416 E19.32629
G1 X82.029 Y153.701 E19.3552
G1 X81.404 Y152.731 E19.39357
G1 X80.972 Y152.017 E19.42133
G1 X80.424 Y151.047 E19.45839
G1 X79.995 Y150.232 E19.48902
G1 X79.365 Y148.924 E19.53731
G1 X78.994 Y148.08 E19.56797
G1 X78.717 Y147.409 E19.59211
G1 X78.4 Y146.578 E19.6217
G1 X78.006 Y145.441 E19.66172
G1 X77.653 Y144.296 E19.70157
G1 X77.449 Y143.557 E19.72707
G1 X77.167 Y142.402 E19.76661
G1 X76.928 Y141.261 E19.80539
G1 X76.775 Y140.396 E19.8346
G1 X76.614 Y139.299 E19.87148
G1 X76.51 Y138.399 E19.90161
G1 X76.435 Y137.566 E19.92943
G1 X76.378 Y136.706 E19.9581
G1 X76.335 Y135.295 E20.00505
G1 X76.339 Y134.39 E20.03515
G1 X76.363 Y133.584 E20.06197
G1 X76.414 Y132.639 E20.09345
G1 X76.505 Y131.573 E20.12903
G1 X76.609 Y130.667 E20.15936
